svgs/regular/money-bills-simple.svg

<svg xmlns="http://www.w3.org/2000/svg" viewBox="0 0 640 512"><!--! Font Awesome Pro 6.0.0-alpha3 by @fontawesome - https://fontawesome.com License - https://fontawesome.com/license (Commercial License) --><path d="M640 96v224c0 35.35-28.65 64-64 64H160c-35.35 0-64-28.65-64-64V96c0-35.35 28.65-64 64-64H576C611.3 32 640 60.65 640 96zM592 96c0-8.822-7.178-16-16-16H160c-8.822 0-16 7.178-16 16v224c0 8.822 7.178 16 16 16H576c8.822 0 16-7.178 16-16V96zM367.1 112c-44.19 0-80 42.98-80 96s35.82 96 80 96c44.18 0 80-42.98 80-96S412.2 112 367.1 112zM512 480H120C53.83 480 0 426.2 0 360v-240C0 106.8 10.75 96 24 96S48 106.8 48 120v240c0 39.7 32.3 72 72 72H512c13.25 0 24 10.75 24 24S525.3 480 512 480z"/></svg>

<svg xmlns="http://www.w3.org/2000/svg" viewBox="0 0 640 512"><!--! Font Awesome Pro 6.0.0 by @fontawesome - https://fontawesome.com License - https://fontawesome.com/license (Commercial License) Copyright 2022 Fonticons, Inc. --><path d="M448 208C448 252.2 412.2 288 368 288C323.8 288 288 252.2 288 208C288 163.8 323.8 128 368 128C412.2 128 448 163.8 448 208zM576 32C611.3 32 640 60.65 640 96V320C640 355.3 611.3 384 576 384H160C124.7 384 96 355.3 96 320V96C96 60.65 124.7 32 160 32H576zM576 80H160C151.2 80 144 87.16 144 96V320C144 328.8 151.2 336 160 336H576C584.8 336 592 328.8 592 320V96C592 87.16 584.8 80 576 80zM48 360C48 399.8 80.24 432 120 432H520C533.3 432 544 442.7 544 456C544 469.3 533.3 480 520 480H120C53.73 480 0 426.3 0 360V120C0 106.7 10.75 96 24 96C37.25 96 48 106.7 48 120V360z"/></svg>
